src/telerik-icons/solid/cells-merge-vertically.svg

<?xml version="1.0" encoding="utf-8"?>
<svg xmlns="http://www.w3.org/2000/svg" width="512" height="512" viewBox="0 0 512 512">
  <path d="M32 448h416V32H32v416zm32-160v-96h96v96H64zm0 128v-96h96v96H64zm352-96v96h-96v-96h96zm0-128v96h-96v-96h96zm0-128v96h-96V64h96zm-128 0v352h-96V64h96zm-128 0v96H64V64h96z"/>
</svg>

<?xml version="1.0" encoding="utf-8"?>
<!-- Generator: Adobe Illustrator 19.2.1, SVG Export Plug-In . SVG Version: 6.00 Build 0)  -->
<svg xmlns="http://www.w3.org/2000/svg" width="512" height="512" viewBox="0 0 512 512">
<path d="M32,448h416V32H32V448z M64,288v-96h96v96H64z M64,416v-96h96v96H64z M416,320v96h-96v-96H416z M416,192v96h-96v-96H416z
	 M416,64v96h-96V64H416z M288,64v352h-96V64H288z M160,64v96H64V64H160z" />
</svg>
